assets/images/linkedin.svg

<?xml version="1.0" encoding="UTF-8"?>
<!DOCTYPE svg  PUBLIC '-//W3C//DTD SVG 1.1//EN'  'http://www.w3.org/Graphics/SVG/1.1/DTD/svg11.dtd'>
<svg clip-rule="evenodd" fill-rule="evenodd" stroke-linejoin="round" stroke-miterlimit="2" version="1.1" viewBox="0 0 100 100" xml:space="preserve" xmlns="http://www.w3.org/2000/svg">
    <g transform="matrix(.22098 0 0 .22098 .5 -6.5714)">
        <path d="m416 32h-384.1c-17.6 0-31.9 14.5-31.9 32.3v383.4c0 17.8 14.3 32.3 31.9 32.3h384.1c17.6 0 32-14.5 32-32.3v-383.4c0-17.8-14.4-32.3-32-32.3zm-280.5 384h-66.5v-213.8h66.5v213.8zm-33.3-243c-21.3 0-38.5-17.3-38.5-38.5s17.2-38.5 38.5-38.5c21.2 0 38.5 17.3 38.5 38.5 0 21.3-17.2 38.5-38.5 38.5zm282.1 243h-66.4v-104c0-24.8-0.5-56.7-34.5-56.7-34.6 0-39.9 27-39.9 54.9v105.8h-66.4v-213.8h63.7v29.2h0.9c8.9-16.8 30.6-34.5 62.9-34.5 67.2 0 79.7 44.3 79.7 101.9v117.2z" fill="#f9fafb" fill-rule="nonzero"/>
    </g>
</svg>

<?xml version="1.0" encoding="UTF-8" standalone="no"?>
<!DOCTYPE svg PUBLIC "-//W3C//DTD SVG 1.1//EN" "http://www.w3.org/Graphics/SVG/1.1/DTD/svg11.dtd">
<svg width="100%" height="100%" viewBox="0 0 100 100" version="1.1" xmlns="http://www.w3.org/2000/svg" xmlns:xlink="http://www.w3.org/1999/xlink" xml:space="preserve" xmlns:serif="http://www.serif.com/" style="fill-rule:evenodd;clip-rule:evenodd;stroke-linejoin:round;stroke-miterlimit:2;">
    <g id="linkedin" transform="matrix(0.220982,0,0,0.220982,0.5,-6.57143)">
        <path d="M416,32L31.9,32C14.3,32 0,46.5 0,64.3L0,447.7C0,465.5 14.3,480 31.9,480L416,480C433.6,480 448,465.5 448,447.7L448,64.3C448,46.5 433.6,32 416,32ZM135.5,416L69,416L69,202.2L135.5,202.2L135.5,416ZM102.2,173C80.9,173 63.7,155.7 63.7,134.5C63.7,113.3 80.9,96 102.2,96C123.4,96 140.7,113.3 140.7,134.5C140.7,155.8 123.5,173 102.2,173ZM384.3,416L317.9,416L317.9,312C317.9,287.2 317.4,255.3 283.4,255.3C248.8,255.3 243.5,282.3 243.5,310.2L243.5,416L177.1,416L177.1,202.2L240.8,202.2L240.8,231.4L241.7,231.4C250.6,214.6 272.3,196.9 304.6,196.9C371.8,196.9 384.3,241.2 384.3,298.8L384.3,416Z" style="fill:rgb(249,250,251);fill-rule:nonzero;"/>
    </g>
</svg>
